_includes/icons/ios-phone-with-a-touch-screen.svg

<svg fill="#666" height="50" viewBox="0 0 50 50" width="50" xmlns="http://www.w3.org/2000/svg"><path d="m14 3c-1.644531 0-3 1.355469-3 3v38c0 1.644531 1.355469 3 3 3h22c1.644531 0 3-1.355469 3-3v-38c0-1.644531-1.355469-3-3-3zm0 2h22c.554688 0 1 .445313 1 1v38c0 .554688-.445312 1-1 1h-22c-.554687 0-1-.445312-1-1v-38c0-.554687.445313-1 1-1zm11 .5c-.550781 0-1 .449219-1 1s.449219 1 1 1 1-.449219 1-1-.449219-1-1-1zm-9.1875 2.5c-.476562.089844-.820312.511719-.8125 1v31c0 .550781.449219 1 1 1h18c.550781 0 1-.449219 1-1v-31c0-.550781-.449219-1-1-1h-18c-.03125 0-.0625 0-.09375 0s-.0625 0-.09375 0zm1.1875 2h16v29h-16zm4.8125 32c-.550781.050781-.957031.542969-.90625 1.09375s.542969.957031 1.09375.90625h6c.359375.003906.695313-.183594.878906-.496094.179688-.3125.179688-.695312 0-1.007812-.183593-.3125-.519531-.5-.878906-.496094h-6c-.03125 0-.0625 0-.09375 0s-.0625 0-.09375 0z"/></svg>

<svg xmlns="http://www.w3.org/2000/svg" viewBox="0 0 50 50" width="50" height="50" fill="#666"><path d="M 14 3 C 12.355469 3 11 4.355469 11 6 L 11 44 C 11 45.644531 12.355469 47 14 47 L 36 47 C 37.644531 47 39 45.644531 39 44 L 39 6 C 39 4.355469 37.644531 3 36 3 Z M 14 5 L 36 5 C 36.554688 5 37 5.445313 37 6 L 37 44 C 37 44.554688 36.554688 45 36 45 L 14 45 C 13.445313 45 13 44.554688 13 44 L 13 6 C 13 5.445313 13.445313 5 14 5 Z M 25 5.5 C 24.449219 5.5 24 5.949219 24 6.5 C 24 7.050781 24.449219 7.5 25 7.5 C 25.550781 7.5 26 7.050781 26 6.5 C 26 5.949219 25.550781 5.5 25 5.5 Z M 15.8125 8 C 15.335938 8.089844 14.992188 8.511719 15 9 L 15 40 C 15 40.550781 15.449219 41 16 41 L 34 41 C 34.550781 41 35 40.550781 35 40 L 35 9 C 35 8.449219 34.550781 8 34 8 L 16 8 C 15.96875 8 15.9375 8 15.90625 8 C 15.875 8 15.84375 8 15.8125 8 Z M 17 10 L 33 10 L 33 39 L 17 39 Z M 21.8125 42 C 21.261719 42.050781 20.855469 42.542969 20.90625 43.09375 C 20.957031 43.644531 21.449219 44.050781 22 44 L 28 44 C 28.359375 44.003906 28.695313 43.816406 28.878906 43.503906 C 29.058594 43.191406 29.058594 42.808594 28.878906 42.496094 C 28.695313 42.183594 28.359375 41.996094 28 42 L 22 42 C 21.96875 42 21.9375 42 21.90625 42 C 21.875 42 21.84375 42 21.8125 42 Z"/></svg>
